picto/luggage-registration.svg

<svg class="color-immutable" width="24" height="24" viewBox="0 0 24 24" fill="none" xmlns="http://www.w3.org/2000/svg"><path d="M0 22.5V1.5C0 0.675 0.675 0 1.5 0H22.5C23.325 0 24 0.675 24 1.5V22.5C24 23.325 23.325 24 22.5 24H1.5C0.675 24 0 23.325 0 22.5Z" fill="#2D327D"/><path d="M3.73 19.575H8.232L8.961 8.65401C8.962 8.63201 8.962 8.61001 8.962 8.58601C8.962 8.02901 8.509 7.57501 7.95 7.57501H4.014C3.453 7.57501 3 8.02901 3 8.58601C3 8.61001 3.001 8.63201 3.001 8.65401L3.73 19.575ZM3.796 8.70001C3.796 8.49301 3.963 8.32401 4.171 8.32401H7.791C7.999 8.32401 8.168 8.49301 8.168 8.70001C8.168 8.70801 8.168 8.71701 8.166 8.72501L7.943 12.075H4.021L3.796 8.72501C3.796 8.71701 3.796 8.70901 3.796 8.70001Z" fill="white"/><path d="M7.719 9.196L7.457 9.047L7.086 9.697L7.345 9.848L7.719 9.196Z" fill="white"/><path d="M6.95198 8.844L6.66198 8.767L6.47198 9.493L6.76298 9.569L6.95198 8.844Z" fill="white"/><path d="M5.83099 8.70001H6.13199V9.45001H5.83099V8.70001Z" fill="white"/><path d="M5.787 11.7H6.177L5.369 8.93403C5.343 8.85503 5.271 8.80103 5.187 8.80103C5.084 8.80103 5 8.88403 5 8.98703C5 9.00503 5.003 9.02303 5.007 9.04003L5.787 11.7Z" fill="white"/><path d="M4.87198 9.70203L4.49898 9.05103L4.23798 9.20003L4.61098 9.85103L4.87198 9.70203Z" fill="white"/><path d="M19.876 12.075H17.25V11.324C17.25 10.868 16.881 10.499 16.425 10.499H14.325C13.869 10.499 13.5 10.868 13.5 11.324V12.075H10.875C10.253 12.075 9.75 12.578 9.75 13.199V18.45C9.75 19.071 10.253 19.575 10.875 19.575H19.876C20.496 19.575 21 19.071 21 18.45V13.199C21 12.578 20.496 12.075 19.876 12.075ZM15.188 16.349C15.188 16.516 15.053 16.65 14.888 16.65H12.862C12.697 16.65 12.562 16.516 12.562 16.349V13.752C12.562 13.672 12.594 13.596 12.65 13.54L13.31 12.88C13.346 12.845 13.394 12.826 13.443 12.826H13.687V13.199H14.063V12.826H14.307C14.356 12.826 14.405 12.846 14.439 12.88L15.099 13.54C15.155 13.596 15.187 13.672 15.187 13.752V16.349H15.188ZM16.574 12.075H14.174V11.174H16.574V12.075Z" fill="white"/><path d="M3 20.325H20.989V21H3V20.325Z" fill="white"/></svg>

<svg class="color-immutable" width="24" height="24" viewBox="0 0 24 24" fill="none" xmlns="http://www.w3.org/2000/svg"><g clip-path="url(#a)"><path d="M0 22.5v-21C0 .675.675 0 1.5 0h21c.825 0 1.5.675 1.5 1.5v21c0 .825-.675 1.5-1.5 1.5h-21C.675 24 0 23.325 0 22.5Z" fill="#2D327D"/><path d="M3.73 19.575h4.502l.729-10.921.001-.068c0-.557-.453-1.011-1.012-1.011H4.014C3.453 7.575 3 8.029 3 8.586l.001.068.729 10.921ZM3.796 8.7c0-.207.167-.376.375-.376h3.62c.208 0 .377.169.377.376 0 .008 0 .017-.002.025l-.223 3.35H4.021l-.225-3.35V8.7Z" fill="#fff"/><path d="m7.719 9.196-.262-.149-.371.65.259.151.374-.652ZM6.952 8.844l-.29-.077-.19.726.291.076.189-.725ZM5.831 8.7h.301v.75h-.301V8.7ZM5.787 11.7h.39l-.808-2.766a.191.191 0 0 0-.182-.133.187.187 0 0 0-.18.239l.78 2.66ZM4.872 9.702l-.373-.651-.261.149.373.651.261-.149ZM19.876 12.075H17.25v-.751a.825.825 0 0 0-.825-.825h-2.1a.825.825 0 0 0-.825.825v.751h-2.625c-.622 0-1.125.503-1.125 1.124v5.251c0 .621.503 1.125 1.125 1.125h9.001c.62 0 1.124-.504 1.124-1.125v-5.251c0-.621-.504-1.124-1.124-1.124Zm-4.688 4.274a.3.3 0 0 1-.3.301h-2.026a.3.3 0 0 1-.3-.301v-2.597a.3.3 0 0 1 .088-.212l.66-.66a.191.191 0 0 1 .133-.054h.244v.373h.376v-.373h.244a.19.19 0 0 1 .132.054l.66.66a.3.3 0 0 1 .088.212v2.597h.001Zm1.386-4.274h-2.4v-.901h2.4v.901ZM3 20.325h17.989V21H3v-.675Z" fill="#fff"/></g><defs><clipPath id="a"><path fill="#fff" d="M0 0h24v24H0z"/></clipPath></defs></svg>
